projects/flag-game/flags/Tanzania.svg

<svg viewBox="0 0 1000 667" xmlns="http://www.w3.org/2000/svg" xmlns:xlink="http://www.w3.org/1999/xlink"><clipPath id="a"><path d="m0 0h1000v666.71875h-1000zm0 0"/></clipPath><g clip-path="url(#a)"><g fill-rule="evenodd"><path d="m0 0h1000l-1000 666.667969zm0 0" fill="#1eb53a"/><path d="m0 666.667969h1000v-666.667969zm0 0" fill="#00a3dd"/><path d="m0 666.667969 1000-666.667969zm0 0"/></g><path d="m0 666.667969 1000-666.667969" fill="none" stroke="#fcd116" stroke-width="229.885058"/><path d="m0 666.667969 1000-666.667969zm0 0" fill-rule="evenodd"/><path d="m0 666.667969 1000-666.667969" fill="none" stroke="#000" stroke-width="157.289777"/></g></svg>

<?xml version="1.0" encoding="UTF-8"?>
<svg xmlns="http://www.w3.org/2000/svg" xmlns:xlink="http://www.w3.org/1999/xlink" viewBox="0 0 1000 667" version="1.1">
<defs>
<clipPath id="clip1">
  <path d="M 0 0 L 1000 0 L 1000 666.71875 L 0 666.71875 Z M 0 0 "/>
</clipPath>
</defs>
<g id="surface1170">
<g clip-path="url(#clip1)" clip-rule="nonzero">
<path style=" stroke:none;fill-rule:evenodd;fill:rgb(11.764526%,70.979309%,22.744751%);fill-opacity:1;" d="M 0 0 L 1000 0 L 0 666.667969 Z M 0 0 "/>
<path style=" stroke:none;fill-rule:evenodd;fill:rgb(0%,63.920593%,86.665344%);fill-opacity:1;" d="M 0 666.667969 L 1000 666.667969 L 1000 0 Z M 0 666.667969 "/>
<path style=" stroke:none;fill-rule:evenodd;fill:rgb(0%,0%,0%);fill-opacity:1;" d="M 0 666.667969 L 1000 0 Z M 0 666.667969 "/>
<path style="fill:none;stroke-width:229.885058;stroke-linecap:butt;stroke-linejoin:miter;stroke:rgb(98.822021%,81.959534%,8.627319%);stroke-opacity:1;stroke-miterlimit:4;" d="M 0 666.667969 L 1000 0 "/>
<path style=" stroke:none;fill-rule:evenodd;fill:rgb(0%,0%,0%);fill-opacity:1;" d="M 0 666.667969 L 1000 0 Z M 0 666.667969 "/>
<path style="fill:none;stroke-width:157.289777;stroke-linecap:butt;stroke-linejoin:miter;stroke:rgb(0%,0%,0%);stroke-opacity:1;stroke-miterlimit:4;" d="M 0 666.667969 L 1000 0 "/>
</g>
</g>
</svg>
